X:018
T:Captain Cadbury's* (ss) +
B:NFID.192a ("untitled strathspey")
018capt_c
S:DOD
L:1/8
M:C
R:hornpipe
Q:280
K:Bb
F<DDC B,CDG|F<DDd cAG2|F<DDC B,CDG|dcBG F<D C2:|
DFBF GFBF|DFBF G<FD2|DFBF GFBF|dcBG F<D C2|
DFBF GFBF|DFBd fde2|d<bfd ecdB|cABG F<D C2||
= = =
P:version in D
K:D
A<FFE DEFB|A<FFf ecB2|A<FFE DEFB|fedB A<F E2:|
FAdA BAdA|FAdA B<AF2|FAdA BAdA|fedB A<F E2|
FAdA BAdA|FAdf afg2|f<gaf gefd|ecdB A<F E2||

%%%

